source/img/icon.svg

<svg width="16" height="16" viewBox="0 0 16 16" fill="none" xmlns="http://www.w3.org/2000/svg">
<rect width="16" height="16" rx="4" fill="#EEEEEE"/>
<path fill-rule="evenodd" clip-rule="evenodd" d="M12.961 5.27176L13.9858 9.57245C14.0003 9.61678 14.0037 9.66404 13.9959 9.71006C13.9881 9.75608 13.9693 9.79943 13.9411 9.83628C13.9128 9.87313 13.8761 9.90234 13.8341 9.92132C13.7921 9.94031 13.7462 9.94848 13.7004 9.94511H12.8854C12.745 11.1271 11.7524 12.0431 10.5488 12.0431C9.34514 12.0431 8.35253 11.1271 8.21213 9.94511H7.81244C7.67191 11.1407 6.66834 12.0678 5.45122 12.0678C4.23204 12.0678 3.22715 11.1376 3.0893 9.93907H2.29494C2.25009 9.94125 2.20537 9.9325 2.16452 9.91354C2.12368 9.89458 2.08789 9.86596 2.06014 9.83008C2.0324 9.79419 2.01351 9.75208 2.00504 9.70727C1.99658 9.66245 1.99879 9.61622 2.01149 9.57245L3.03826 5.27176C3.10962 4.79838 3.55362 3.9322 4.74293 3.9322C4.82178 3.9322 4.89741 3.96404 4.95317 4.0207C5.00893 4.07737 5.04025 4.15422 5.04025 4.23436C5.04025 4.3145 5.00893 4.39135 4.95317 4.44802C4.89741 4.50468 4.82178 4.53652 4.74293 4.53652C3.78554 4.53652 3.63688 5.28788 3.62498 5.37047L2.67949 9.34281H3.09315C3.24493 8.1596 4.24282 7.24579 5.45122 7.24579C6.65896 7.24579 7.65642 8.1586 7.80904 9.34086L8.21533 9.34271C8.36698 8.17325 9.3539 7.27052 10.5488 7.27052C11.746 7.27052 12.7344 8.17677 12.8831 9.34955V9.33878H13.3178L12.3743 5.37047C12.3604 5.28788 12.2177 4.53652 11.2563 4.53652C11.1775 4.53652 11.1019 4.50468 11.0461 4.44802C10.9903 4.39135 10.959 4.3145 10.959 4.23436C10.959 4.15422 10.9903 4.07737 11.0461 4.0207C11.1019 3.96404 11.1775 3.9322 11.2563 3.9322C12.4457 3.9322 12.8897 4.79838 12.961 5.27176ZM7.22147 9.94511C7.23623 9.85121 7.2439 9.75491 7.2439 9.65679C7.2439 9.5491 7.23466 9.44359 7.21695 9.34105C7.06953 8.48776 6.33507 7.83927 5.45122 7.83927C4.56684 7.83927 3.83204 8.48853 3.68523 9.34257C3.66768 9.44464 3.65854 9.54963 3.65854 9.65679C3.65854 9.75332 3.66596 9.84808 3.68025 9.94054C3.81463 10.8096 4.55635 11.4743 5.45122 11.4743C6.34452 11.4743 7.08521 10.8119 7.22147 9.94511ZM12.2943 9.94511C12.3093 9.85125 12.3171 9.75494 12.3171 9.65679C12.3171 8.66666 11.5254 7.86399 10.5488 7.86399C9.57218 7.86399 8.78049 8.66666 8.78049 9.65679C8.78049 9.75494 8.78827 9.85125 8.80323 9.94511C8.93926 10.7982 9.66899 11.4496 10.5488 11.4496C11.4286 11.4496 12.1583 10.7982 12.2943 9.94511Z" fill="black"/>
</svg>

<svg width="16" height="16" fill="none" xmlns="http://www.w3.org/2000/svg"><rect width="16" height="16" rx="4" fill="#EEE"/><path fill-rule="evenodd" clip-rule="evenodd" d="m12.961 5.272 1.025 4.3a.288.288 0 0 1-.152.35.275.275 0 0 1-.134.023h-.815c-.14 1.182-1.133 2.098-2.336 2.098-1.204 0-2.196-.916-2.337-2.098h-.4c-.14 1.196-1.144 2.123-2.36 2.123-1.22 0-2.225-.93-2.363-2.129h-.794a.278.278 0 0 1-.235-.109.288.288 0 0 1-.049-.258l1.027-4.3c.072-.474.516-1.34 1.705-1.34.079 0 .154.032.21.089a.305.305 0 0 1 0 .427.295.295 0 0 1-.21.089c-.957 0-1.106.75-1.118.833l-.946 3.973h.414c.152-1.183 1.15-2.097 2.358-2.097 1.208 0 2.205.913 2.358 2.095l.406.002c.152-1.17 1.139-2.072 2.334-2.072 1.197 0 2.185.906 2.334 2.079v-.011h.435l-.944-3.969c-.014-.082-.156-.833-1.118-.833a.295.295 0 0 1-.21-.089.305.305 0 0 1 0-.427.295.295 0 0 1 .21-.089c1.19 0 1.634.866 1.705 1.34Zm-5.74 4.673a1.856 1.856 0 0 0-.004-.604A1.8 1.8 0 0 0 5.45 7.839 1.8 1.8 0 0 0 3.66 9.657a1.8 1.8 0 0 0 1.793 1.818 1.8 1.8 0 0 0 1.77-1.53Zm5.073 0a1.78 1.78 0 0 0-1.745-2.081A1.78 1.78 0 0 0 8.78 9.657a1.776 1.776 0 0 0 1.768 1.793c.88 0 1.61-.652 1.746-1.505Z" fill="#000"/></svg>
